packages/ffe-icons/icons/filled/lg/magnification_large.svg

<svg xmlns="http://www.w3.org/2000/svg" height="40" viewBox="0 -960 960 960" width="40"><path d="M238.308-373.796H636.41q13.307 0 22.294-8.987 8.988-8.987 8.988-22.294v-236.615q0-13.307-8.988-22.295-8.987-8.987-22.294-8.987H238.308q-13.307 0-22.295 8.987-8.987 8.988-8.987 22.295v236.615q0 13.307 8.987 22.294 8.988 8.987 22.295 8.987Zm-75.743 193.795q-25.846 0-44.205-18.359-18.359-18.359-18.359-44.205v-474.87q0-25.846 18.359-44.205 18.359-18.359 44.205-18.359h634.87q25.846 0 44.205 18.359 18.359 18.359 18.359 44.205v474.87q0 25.846-18.359 44.205-18.359 18.359-44.205 18.359h-634.87Z"/></svg>

<svg xmlns="http://www.w3.org/2000/svg" viewBox="0 -960 960 960" width="32" height="32"><path d="M238.31-373.8h398.1q13.31 0 22.29-8.98 8.99-8.99 8.99-22.3v-236.61q0-13.31-8.99-22.3-8.98-8.98-22.29-8.98h-398.1q-13.31 0-22.3 8.98-8.98 8.99-8.98 22.3v236.61q0 13.31 8.98 22.3 8.99 8.98 22.3 8.98ZM162.57-180q-25.85 0-44.21-18.36T100-242.57v-474.86q0-25.85 18.36-44.21T162.57-780h634.86q25.85 0 44.21 18.36T860-717.43v474.86q0 25.85-18.36 44.21T797.43-180H162.57Z"/></svg>
